!!!SOCIAL_FUNCTION:	songs used in the treatment of the sick
!!!PDT:	1922
!!!OTL: No_65_Song_Used_in_Treatment_of_Sick_(n).krn
!!!REG: Southwest
!!!LANG: Non-Tone
!!!LING_GROUP: Uto-Aztecan
**kern
*staff1
=1-
*clefG2
*k[b-e-]
*M2/4
[2f/
=2
2f/_
=3
4f/]
4b-\
=4
2cc\
=5
4dd\
4cc\
=6||
*M3/4
2.b-\
=7||
*M2/4
4cc\
4b-\
=8||
*M3/4
2b-\
8d/L
8c/J
=9
4d/
2c/
=10
4d/
16d/LK
[8.c/J
4c/]
=11
[2.B-/
=12||
*M2/4
2B-/]
=13
16d/LK
[8.c/J
4c/]
=14||
*M3/4
2.B-/
=15||
*M2/4
4d/
4c/
=16
2c/
=17
4c/
4B-/
=18||
*M3/4
2.B-/
=19||
*M2/4
4c/
4B-/
=20
[2B-/
=21
2B-/]
=22
2B-/
==
*-
